home-switch.svg

<svg fill="currentColor" viewBox="0 0 24 24"><path d="M6.5 15v-4h3v4H13V9h2L8 3 1 9h2v6zM9 16v2h6v-2l3 3-3 3v-2H9v2l-3-3zm14-7h-2v6h-6v-5h4l-5.46-4.89L16 3z"/></svg>

<svg  viewBox="0 0 24 24" fill="currentColor"><path  d="M6.5 15V11H9.5V15H13V9H15L8 3L1 9H3V15H6.5M9 16V18H15V16L18 19L15 22V20H9V22L6 19L9 16M23 9H21V15H15V10H19L13.54 5.11L16 3L23 9Z"/></svg>
